Numix/32x32/categories/applications-chat.svg

<?xml version="1.0" encoding="UTF-8" standalone="no"?>
<svg
   xmlns:dc="http://purl.org/dc/elements/1.1/"
   xmlns:cc="http://creativecommons.org/ns#"
   xmlns:rdf="http://www.w3.org/1999/02/22-rdf-syntax-ns#"
   xmlns:svg="http://www.w3.org/2000/svg"
   xmlns="http://www.w3.org/2000/svg"
   xmlns:sodipodi="http://sodipodi.sourceforge.net/DTD/sodipodi-0.dtd"
   xmlns:inkscape="http://www.inkscape.org/namespaces/inkscape"
   width="32"
   height="32"
   viewBox="0 0 32 32"
   id="svg2"
   version="1.1"
   inkscape:version="0.91 r"
   sodipodi:docname="applications-chat.svg">
  <metadata
     id="metadata14">
    <rdf:RDF>
      <cc:Work
         rdf:about="">
        <dc:format>image/svg+xml</dc:format>
        <dc:type
           rdf:resource="http://purl.org/dc/dcmitype/StillImage" />
      </cc:Work>
    </rdf:RDF>
  </metadata>
  <defs
     id="defs12" />
  <sodipodi:namedview
     pagecolor="#ffffff"
     bordercolor="#666666"
     borderopacity="1"
     objecttolerance="10"
     gridtolerance="10"
     guidetolerance="10"
     inkscape:pageopacity="0"
     inkscape:pageshadow="2"
     inkscape:window-width="1920"
     inkscape:window-height="1056"
     id="namedview10"
     showgrid="false"
     inkscape:zoom="7.375"
     inkscape:cx="16"
     inkscape:cy="16"
     inkscape:window-x="0"
     inkscape:window-y="24"
     inkscape:window-maximized="1"
     inkscape:current-layer="svg2" />
  <g
     style="fill:#8ccd7c"
     id="g4"
     transform="translate(0.1660155,0.1660155)">
    <path
       d="m 9.28125,10.03125 c -3.214844,0 -5.816406,2.621094 -5.816406,5.851562 0,0.199219 0,0.398438 0.023437,0.59375 0.046875,1.253907 -0.023437,3.066407 1.429688,7.453126 1.238281,3.734374 2.179687,3.65625 2.179687,3.65625 l 1.453125,-0.734376 c 0,0 -0.726562,-1.460937 -0.726562,-2.921874 0,-0.703126 0.167969,-1.570313 0.34375,-2.285157 0.359375,0.06641 0.734375,0.08984 1.113281,0.08984 3.207031,0 5.8125,-2.621094 5.8125,-5.851563 0,-3.230468 -2.605469,-5.851562 -5.8125,-5.851562 z"
       id="path6"
       inkscape:connector-curvature="0" />
    <path
       d="m 22.386719,21.632812 c 3.210937,0 5.816406,-2.621093 5.816406,-5.847656 0,-0.203125 -0.0039,-0.402344 -0.02344,-0.597656 -0.04688,-1.253906 0.02344,-3.0625 -1.433594,-7.449219 -1.234375,-3.734375 -2.179688,-3.65625 -2.179688,-3.65625 l -1.453125,0.734375 c 0,0 0.726563,1.460938 0.726563,2.921875 0,0.703125 -0.164063,1.570313 -0.339844,2.285157 -0.359375,-0.070313 -0.738281,-0.089844 -1.113281,-0.089844 -3.210938,0 -5.8125,2.617187 -5.8125,5.851562 0,3.226563 2.601562,5.847656 5.8125,5.847656 z"
       id="path8"
       inkscape:connector-curvature="0" />
  </g>
</svg>

<svg width="32" xmlns="http://www.w3.org/2000/svg" height="32" viewBox="0 0 32 32" xmlns:xlink="http://www.w3.org/1999/xlink">
<g style="fill:#8ccd7c">
<path d="M 9.28125 10.03125 C 6.066406 10.03125 3.464844 12.652344 3.464844 15.882812 C 3.464844 16.082031 3.464844 16.28125 3.488281 16.476562 C 3.535156 17.730469 3.464844 19.542969 4.917969 23.929688 C 6.15625 27.664062 7.097656 27.585938 7.097656 27.585938 L 8.550781 26.851562 C 8.550781 26.851562 7.824219 25.390625 7.824219 23.929688 C 7.824219 23.226562 7.992188 22.359375 8.167969 21.644531 C 8.527344 21.710938 8.902344 21.734375 9.28125 21.734375 C 12.488281 21.734375 15.09375 19.113281 15.09375 15.882812 C 15.09375 12.652344 12.488281 10.03125 9.28125 10.03125 Z "/>
<path d="M 22.386719 21.632812 C 25.597656 21.632812 28.203125 19.011719 28.203125 15.785156 C 28.203125 15.582031 28.199219 15.382812 28.179688 15.1875 C 28.132812 13.933594 28.203125 12.125 26.746094 7.738281 C 25.511719 4.003906 24.566406 4.082031 24.566406 4.082031 L 23.113281 4.816406 C 23.113281 4.816406 23.839844 6.277344 23.839844 7.738281 C 23.839844 8.441406 23.675781 9.308594 23.5 10.023438 C 23.140625 9.953125 22.761719 9.933594 22.386719 9.933594 C 19.175781 9.933594 16.574219 12.550781 16.574219 15.785156 C 16.574219 19.011719 19.175781 21.632812 22.386719 21.632812 Z "/>
</g>
</svg>
